X: 1466
T: Anderson's
R: reel
M: 4/4
K: Dmajor
|:ABdf e2dB|AF~F2 EFDB|ABdf e2df|1 afef dedB:|2 afef d3f||
a2fa bafb|a2fd edBd|a2fa bafb|afef d3f|
a2fa bafb|a2fd edBd|A2FB ABdf|afef d3B||

